!!!ONB: MCCC : IJB0067_07 : Extracted Monophonic Melody
!!!COM: Bach, Johann Sebastian
!!!OPR: Cello Suite No.5
!!!OMV: 7
!!!SCT: BWV 1011
!!!ODT: 1717///
**kern
*thru
*staff1
*IP1
*clefF4
*k[b-e-a-]
*c:
*M3/8
*>A
8G
=1
8.E-
16F
8D
=2
8.E-
16F
8D
=3
8.C
16BB-
16AA-
16GG
=4
8.AA-
16C
8GG
=5
8.FF
16E-
8C
=6
8.D
16E-
8C
=7
8.BB
16D
8GG
=8
8.G
16F
16E-
16D
=9
8.E-
16G
8C
=10
8.A-
16G
16F
16E-
=11
8.F
16A-
8D
=12
8.c
16B-
16A
16F
=13
8.G
16E-
8d
=14
8.B-
16F
8e
=15
4.f[
=16
8.f]
16e
16d
16c
=17
8.d
16c
16B-
16A
=18
4.B-[
=19
8.B-]
16G
16F
16E-
=20
8.D
16C
16BB-
16AA-
=21
8.GG
16A-
8F
=22
8.G
16c
8D
=23
8.E-
16GG
8BB-
=24
4EE-
*>A
8G
=1
8.E-
16F
8D
=2
8.E-
16F
8D
=3
8.C
16BB-
16AA-
16GG
=4
8.AA-
16C
8GG
=5
8.FF
16E-
8C
=6
8.D
16E-
8C
=7
8.BB
16D
8GG
=8
8.G
16F
16E-
16D
=9
8.E-
16G
8C
=10
8.A-
16G
16F
16E-
=11
8.F
16A-
8D
=12
8.c
16B-
16A
16F
=13
8.G
16E-
8d
=14
8.B-
16F
8e
=15
4.f[
=16
8.f]
16e
16d
16c
=17
8.d
16c
16B-
16A
=18
4.B-[
=19
8.B-]
16G
16F
16E-
=20
8.D
16C
16BB-
16AA-
=21
8.GG
16A-
8F
=22
8.G
16c
8D
=23
8.E-
16GG
8BB-
=24
4EE-
*>B
8E-
=25
8.G
16A-
8F
=26
8.G
16c
8B
=27
8.c
16D
16E-
16F
=28
8.BB-
16C
8D
=29
8.E-
16d
8B
=30
8.c
16F#
8G
=31
8.F#
16B
8D
=32
8.e
16d
16c
16B
=33
8.c
16e
8A
=34
8.F
16A
8D
=35
8.E-
16A
8d
=36
4f
8e
=37
8.d
16F#
8G
=38
8.D
16B
8F#
=39
8.G
16BB-
16C
16D
=40
8.GG
16c
8A
=41
8.E
16A
8c
=42
8.e-
16c
8d
=43
8.B-
16G
16F
16E
=44
8.F
16B-
8E-
=45
8.D
16F
8B-
=46
8.d
16B-
8c
=47
8.A
16F
16E-
16D
=48
8.E-
16A
8c
=49
8.B
16F
16E-
16D
=50
8.E-
16B
8d
=51
8.c#
16G
16F
16E-
=52
8.F
16c#
8e
=53
8.d
16A
8f
=54
8.e
16A
8g
=55
4.f
=56
4.f#
=57
8.g
16e
8f
=58
8.e
16c#
8d
=59
8.c#
16d
8e
=60
8.A
16F
16E-
16D
=61
8E-
4d[
=62
8.d]
16c
16B-
16A
=63
8.B-
16G
16F
16E
=64
4.F[
=65
8.F]
16E-
16D
16C
=66
8.BB
16AA-
16GG
16FF
=67
8.EE-
16GG
8BB
=68
8.D
16F
8A-
=69
8.G
16D
8E-
=70
8.GG
16C
8BB
=71
8.C
16EE-
8GG
=72
4CC
*>B
8E-
=25
8.G
16A-
8F
=26
8.G
16c
8B
=27
8.c
16D
16E-
16F
=28
8.BB-
16C
8D
=29
8.E-
16d
8B
=30
8.c
16F#
8G
=31
8.F#
16B
8D
=32
8.e
16d
16c
16B
=33
8.c
16e
8A
=34
8.F
16A
8D
=35
8.E-
16A
8d
=36
4f
8e
=37
8.d
16F#
8G
=38
8.D
16B
8F#
=39
8.G
16BB-
16C
16D
=40
8.GG
16c
8A
=41
8.E
16A
8c
=42
8.e-
16c
8d
=43
8.B-
16G
16F
16E
=44
8.F
16B-
8E-
=45
8.D
16F
8B-
=46
8.d
16B-
8c
=47
8.A
16F
16E-
16D
=48
8.E-
16A
8c
=49
8.B
16F
16E-
16D
=50
8.E-
16B
8d
=51
8.c#
16G
16F
16E-
=52
8.F
16c#
8e
=53
8.d
16A
8f
=54
8.e
16A
8g
=55
4.f
=56
4.f#
=57
8.g
16e
8f
=58
8.e
16c#
8d
=59
8.c#
16d
8e
=60
8.A
16F
16E-
16D
=61
8E-
4d[
=62
8.d]
16c
16B-
16A
=63
8.B-
16G
16F
16E
=64
4.F[
=65
8.F]
16E-
16D
16C
=66
8.BB
16AA-
16GG
16FF
=67
8.EE-
16GG
8BB
=68
8.D
16F
8A-
=69
8.G
16D
8E-
=70
8.GG
16C
8BB
=71
8.C
16EE-
8GG
=72
4CC
==
*-
